X: 1
T: the BELLS OF HELL GO TING-A-LING-A-LING
T: (For You But Not For Me)
S: Facebook image of printed song 2019-9-25
N: (Page) 141 in upper-right corner
M: 2/4
L: 1/16
K: G
%%continueall yes
[D2B2D2] | [B2G2D2][d2B2D2] [B2G2D2][G2D2B,2] | [DB,][DB,][DB,][DB,] [D2B,2][G2B,2] |
w: The Bells of Hell go ting-a-ling-a-ling,  For
[D2B,2][G2B,2] [D2B,2][G2B,2] | [F6C6] {d2d'2}y [dFD][dFD] |
w: you and not for me,  And the
[c2F2D2][d2F2D2] [cFD][cFD][AFC][AFC] | [DC][DC][DC][DC] [D2C2][A2D2C2] |
w: lit-tle dev-ils how they sing-a-ling-a-ling,  For
 [D2C2][A2D2C2] [D2C2][A2D2C2] | [B6D6B,6] {d2d'2}[d2B2D2] |
w: you but not for me, O,
[B2G2D2][d2B2D2] [B2G2D2][G2D2B,2] | [DB,][DB,][DB,][DB,] [D2B,2][G2B,2] |
w: Death, where is thy sting-a-ling-a-ling? O,
"Bb"[F2D2B,2]"Gm"[G2D2B,2]"D/F#"[A2D2A,2]"G7"[B2G2D2B,2] | "C/E"[c4G4C4] "Ebdim7"k[^c4^A4G4^C4] |
w: Grave, thy vic-to-ry?  The
"G/D"[d2B2G2D2][d2B2G2D2] "D#dim7"[d2B2G2D2][c2A2F2C2] | "Em"[BGEB,][BGEB,][BGEB,][BGEB,] [B2G2E2B,2][G2E2B,2] |
w: Bells of Hell go ting-a-ling-a-ling,  For
"Am"[A2E2C2][G2E2C2][E2C2][F2D2C2] | "G"[G6D6B,6] |]
w: you but not for me!
